X:45
T:The Old Cameronian
R:reel
S:John Doherty
Z:First time through tune; second and third similar but
Z:have some variations; transcribed by Larry Sanger
M:C|
L:1/8
K:Flyd
cF F/F/F cFdF|cFEF CFAc|BG^FG DGBG|[1 DGBd c_BAB:|[2 DGBd c_BAG||
Fffg fdcA|FAfg fdce|dg^fg bgag|dg^fg bgag|
dcde fdcA|Ffeg fde^f|g/a/g dg g/a/g dg|bgag fafd||
